svgs/sharp-regular/hospitals.svg

<svg xmlns="http://www.w3.org/2000/svg" viewBox="0 0 576 512"><!--! Font Awesome Pro 6.6.0 by @fontawesome - https://fontawesome.com License - https://fontawesome.com/license (Commercial License) Copyright 2024 Fonticons, Inc. --><path d="M304 48l224 0 0 208-208 0 0 48 208 0 0 48-208 0 0 48 208 0 0 64-208 0 0 48 208 0 48 0 0-48 0-416 0-48L528 0 304 0 256 0l0 48 0 16 48 0 0-16zM408 80l0 40-40 0 0 48 40 0 0 40 48 0 0-40 40 0 0-48-40 0 0-40-48 0zM168 176l-48 0 0 40-40 0 0 48 40 0 0 40 48 0 0-40 40 0 0-48-40 0 0-40zM48 144l192 0 0 208L48 352l0-208zm0 256l192 0 0 64L48 464l0-64zM0 96l0 48L0 464l0 48 48 0 192 0 48 0 0-48 0-320 0-48-48 0L48 96 0 96z"/></svg>

<svg xmlns="http://www.w3.org/2000/svg" viewBox="0 0 576 512"><!--! Font Awesome Pro 6.4.2 by @fontawesome - https://fontawesome.com License - https://fontawesome.com/license (Commercial License) Copyright 2023 Fonticons, Inc. --><path d="M304 48H528V256H320v48H528v48H320v48H528v64H320v48H528h48V464 48 0H528 304 256V48 64h48V48zM408 80v40H368v48h40v40h48V168h40V120H456V80H408zM168 176H120v40H80v48h40v40h48V264h40V216H168V176zM48 144H240V352H48V144zm0 256H240v64H48V400zM0 96v48V464v48H48 240h48V464 144 96H240 48 0z"/></svg>
